MODULE Module1
        CONST robtarget Target_10:=[[-70.591548147,111.168965603,99.999532527],[0,-0.707106781,0.707106781,0],[0,0,0,0],[9E+09,9E+09,9E+09,9E+09,9E+09,9E+09]];
    CONST robtarget Target_20:=[[-70.591548147,111.168965498,-0.000467472],[0,-0.707106781,0.707106781,0],[0,0,0,0],[9E+09,9E+09,9E+09,9E+09,9E+09,9E+09]];
    CONST robtarget Target_30:=[[-71.633801668,56.183050005,-0.000467415],[0,0.707106781,-0.707106781,0.000000001],[0,0,0,0],[9E+09,9E+09,9E+09,9E+09,9E+09,9E+09]];
    CONST robtarget Target_40:=[[-89.521125612,55.281641554,-0.000467413],[0,-0.707106781,0.707106781,0],[0,0,0,0],[9E+09,9E+09,9E+09,9E+09,9E+09,9E+09]];
    CONST robtarget Target_50:=[[-103.070421387,57.140796484,-0.000467415],[0,-0.707106781,0.707106781,0],[0,0,0,0],[9E+09,9E+09,9E+09,9E+09,9E+09,9E+09]];
    CONST robtarget Target_60:=[[-112.450703077,62.690092258,-0.000467421],[-0.000000001,0.707106781,-0.707106781,0.000000001],[0,0,0,0],[9E+09,9E+09,9E+09,9E+09,9E+09,9E+09]];
    CONST robtarget Target_70:=[[-118.253519978,71.760514794,-0.00046743],[0,-0.707106781,0.707106781,0],[0,0,0,0],[9E+09,9E+09,9E+09,9E+09,9E+09,9E+09]];
    CONST robtarget Target_80:=[[-120.225350964,84.239388034,-0.000467444],[0,-0.707106781,0.707106781,0],[0,0,0,0],[9E+09,9E+09,9E+09,9E+09,9E+09,9E+09]];
    CONST robtarget Target_90:=[[-118.084505894,98.295726061,-0.000467459],[0,0.707106781,-0.707106781,-0.000000001],[0,0,0,0],[9E+09,9E+09,9E+09,9E+09,9E+09,9E+09]];
    CONST robtarget Target_100:=[[-111.915491809,107.845021836,-0.000467469],[0,-0.707106781,0.707106781,0],[0,0,0,0],[9E+09,9E+09,9E+09,9E+09,9E+09,9E+09]];
    CONST robtarget Target_110:=[[-102.140843922,113.281641554,-0.000467474],[0,-0.707106781,0.707106781,0],[0,0,0,0],[9E+09,9E+09,9E+09,9E+09,9E+09,9E+09]];
    CONST robtarget Target_120:=[[-74.19718195,114.999951413,-0.000467476],[0,-0.707106781,0.707106781,0],[0,0,0,0],[9E+09,9E+09,9E+09,9E+09,9E+09,9E+09]];
    CONST robtarget Target_130:=[[-70.591548147,111.168965498,-0.000467472],[0,-0.707106781,0.707106781,0],[0,0,0,0],[9E+09,9E+09,9E+09,9E+09,9E+09,9E+09]];
    CONST robtarget Target_140:=[[-70.591548147,111.168965603,99.999532527],[0,-0.707106781,0.707106781,0],[0,0,0,0],[9E+09,9E+09,9E+09,9E+09,9E+09,9E+09]];
    CONST robtarget Target_150:=[[-82.704224204,64.80276842,99.999532576],[0,-0.707106781,0.707106781,0],[0,0,0,0],[9E+09,9E+09,9E+09,9E+09,9E+09,9E+09]];
    CONST robtarget Target_160:=[[-82.704224204,64.802768315,-0.000467423],[0,-0.707106781,0.707106781,0],[0,0,0,0],[9E+09,9E+09,9E+09,9E+09,9E+09,9E+09]];
    CONST robtarget Target_170:=[[-82.704224204,105.422486624,-0.000467466],[0,-0.707106781,0.707106781,0],[0,0,0,0],[9E+09,9E+09,9E+09,9E+09,9E+09,9E+09]];
    CONST robtarget Target_180:=[[-97.43661857,104.126711977,-0.000467465],[-0.000000001,0.707106781,-0.707106781,0.000000001],[0,0,0,0],[9E+09,9E+09,9E+09,9E+09,9E+09,9E+09]];
    CONST robtarget Target_190:=[[-103.126759415,100.239388033,-0.00046746],[0,-0.707106781,0.707106781,0],[0,0,0,0],[9E+09,9E+09,9E+09,9E+09,9E+09,9E+09]];
    CONST robtarget Target_200:=[[-106.535210119,93.760514793,-0.000467453],[-0.000000001,-0.707106781,0.707106781,0],[0,0,0,0],[9E+09,9E+09,9E+09,9E+09,9E+09,9E+09]];
    CONST robtarget Target_210:=[[-106.67605519,76.802768315,-0.000467436],[0.000000001,-0.707106781,0.707106781,0],[0,0,0,0],[9E+09,9E+09,9E+09,9E+09,9E+09,9E+09]];
    CONST robtarget Target_220:=[[-103.492956598,70.464740146,-0.00046743],[0,-0.707106781,0.707106781,0],[0,0,0,0],[9E+09,9E+09,9E+09,9E+09,9E+09,9E+09]];
    CONST robtarget Target_230:=[[-97.859153781,66.295726061,-0.000467425],[0.000000001,-0.707106781,0.707106781,0.000000001],[0,0,0,0],[9E+09,9E+09,9E+09,9E+09,9E+09,9E+09]];
    CONST robtarget Target_240:=[[-82.704224204,64.802768315,-0.000467423],[0,-0.707106781,0.707106781,0],[0,0,0,0],[9E+09,9E+09,9E+09,9E+09,9E+09,9E+09]];
    CONST robtarget Target_250:=[[-82.704224204,64.80276842,99.999532576],[0,-0.707106781,0.707106781,0],[0,0,0,0],[9E+09,9E+09,9E+09,9E+09,9E+09,9E+09]];
    CONST robtarget Target_260:=[[-174.309855649,98.661923349,99.99953254],[0,-0.707106781,0.707106781,0],[0,0,0,0],[9E+09,9E+09,9E+09,9E+09,9E+09,9E+09]];
    CONST robtarget Target_270:=[[-174.309855649,98.661923244,-0.000467459],[0,-0.707106781,0.707106781,0],[0,0,0,0],[9E+09,9E+09,9E+09,9E+09,9E+09,9E+09]];
    CONST robtarget Target_280:=[[-170.338024663,92.577416202,-0.000467453],[0,-0.707106781,0.707106781,0],[0,0,0,0],[9E+09,9E+09,9E+09,9E+09,9E+09,9E+09]];
    CONST robtarget Target_290:=[[-152.929573959,82.49290916,-0.000467442],[0.000000001,-0.707106781,0.707106781,0],[0,0,0,0],[9E+09,9E+09,9E+09,9E+09,9E+09,9E+09]];
    CONST robtarget Target_300:=[[-148.957742973,71.450655639,-0.000467431],[0,-0.707106781,0.707106781,0],[0,0,0,0],[9E+09,9E+09,9E+09,9E+09,9E+09,9E+09]];
    CONST robtarget Target_310:=[[-150.563376776,63.87319085,-0.000467422],[0,-0.707106781,0.707106781,0],[0,0,0,0],[9E+09,9E+09,9E+09,9E+09,9E+09,9E+09]];
    CONST robtarget Target_320:=[[-154.845066917,58.49290916,-0.000467417],[0,0.707106781,-0.707106781,0.000000001],[0,0,0,0],[9E+09,9E+09,9E+09,9E+09,9E+09,9E+09]];
    CONST robtarget Target_330:=[[-169.014081001,54.211219019,-0.000467413],[0,-0.707106781,0.707106781,0],[0,0,0,0],[9E+09,9E+09,9E+09,9E+09,9E+09,9E+09]];
    CONST robtarget Target_340:=[[-182.394362691,57.816852822,-0.000467416],[0,-0.707106781,0.707106781,0],[0,0,0,0],[9E+09,9E+09,9E+09,9E+09,9E+09,9E+09]];
    CONST robtarget Target_350:=[[-182.73239086,67.450655639,-0.000467427],[0,-0.707106781,0.707106781,0],[0,0,0,0],[9E+09,9E+09,9E+09,9E+09,9E+09,9E+09]];
    CONST robtarget Target_360:=[[-169.183095086,63.676007752,-0.000467422],[0,-0.707106781,0.707106781,0],[0,0,0,0],[9E+09,9E+09,9E+09,9E+09,9E+09,9E+09]];
    CONST robtarget Target_370:=[[-161.774644382,67.563331695,-0.000467426],[-0.000000001,-0.707106781,0.707106781,0],[0,0,0,0],[9E+09,9E+09,9E+09,9E+09,9E+09,9E+09]];
    CONST robtarget Target_380:=[[-162.366193677,73.535162681,-0.000467433],[0,-0.707106781,0.707106781,0],[0,0,0,0],[9E+09,9E+09,9E+09,9E+09,9E+09,9E+09]];
    CONST robtarget Target_390:=[[-182.929573959,86.211219019,-0.000467446],[0,0.707106781,-0.707106781,0.000000001],[0,0,0,0],[9E+09,9E+09,9E+09,9E+09,9E+09,9E+09]];
    CONST robtarget Target_400:=[[-186.929573959,97.084458455,-0.000467458],[0,-0.707106781,0.707106781,0],[0,0,0,0],[9E+09,9E+09,9E+09,9E+09,9E+09,9E+09]];
    CONST robtarget Target_410:=[[-185.183095086,105.366148596,-0.000467466],[0,-0.707106781,0.707106781,0],[0,0,0,0],[9E+09,9E+09,9E+09,9E+09,9E+09,9E+09]];
    CONST robtarget Target_420:=[[-180.422531706,111.281641554,-0.000467473],[0,0.707106781,-0.707106781,-0.000000001],[0,0,0,0],[9E+09,9E+09,9E+09,9E+09,9E+09,9E+09]];
    CONST robtarget Target_430:=[[-173.408447198,114.859106343,-0.000467476],[0.000000001,0.707106781,-0.707106781,-0.000000001],[0,0,0,0],[9E+09,9E+09,9E+09,9E+09,9E+09,9E+09]];
    CONST robtarget Target_440:=[[-159.098588044,115.563331695,-0.000467476],[0.000000001,-0.707106781,0.707106781,0],[0,0,0,0],[9E+09,9E+09,9E+09,9E+09,9E+09,9E+09]];
    CONST robtarget Target_450:=[[-149.042250015,111.422486625,-0.000467472],[0.000000001,-0.707106781,0.707106781,0],[0,0,0,0],[9E+09,9E+09,9E+09,9E+09,9E+09,9E+09]];
    CONST robtarget Target_460:=[[-148.901404945,101.619669724,-0.000467462],[0,0.707106781,-0.707106781,0.000000001],[0,0,0,0],[9E+09,9E+09,9E+09,9E+09,9E+09,9E+09]];
    CONST robtarget Target_470:=[[-164.845066917,106.267557047,-0.000467467],[0,-0.707106781,0.707106781,0],[0,0,0,0],[9E+09,9E+09,9E+09,9E+09,9E+09,9E+09]];
    CONST robtarget Target_480:=[[-171.802813396,104.239388033,-0.000467464],[0,0.707106781,-0.707106781,0.000000001],[0,0,0,0],[9E+09,9E+09,9E+09,9E+09,9E+09,9E+09]];
    CONST robtarget Target_490:=[[-174.309855649,98.661923244,-0.000467459],[0,-0.707106781,0.707106781,0],[0,0,0,0],[9E+09,9E+09,9E+09,9E+09,9E+09,9E+09]];
    CONST robtarget Target_500:=[[-174.309855649,98.661923349,99.99953254],[0,-0.707106781,0.707106781,0],[0,0,0,0],[9E+09,9E+09,9E+09,9E+09,9E+09,9E+09]];
    CONST robtarget Target_510:=[[-223.718305541,97.873190955,99.999532542],[0,-0.707106781,0.707106781,0],[0,0,0,0],[9E+09,9E+09,9E+09,9E+09,9E+09,9E+09]];
    CONST robtarget Target_520:=[[-223.718305541,97.87319085,-0.000467458],[0,-0.707106781,0.707106781,0],[0,0,0,0],[9E+09,9E+09,9E+09,9E+09,9E+09,9E+09]];
    CONST robtarget Target_530:=[[-224.985911175,55.450655639,-0.000467414],[-0.000000001,0.707106781,-0.707106781,0.000000001],[0,0,0,0],[9E+09,9E+09,9E+09,9E+09,9E+09,9E+09]];
    CONST robtarget Target_540:=[[-235.57746047,56.042204934,-0.000467415],[0,0.707106781,-0.707106781,0.000000001],[0,0,0,0],[9E+09,9E+09,9E+09,9E+09,9E+09,9E+09]];
    CONST robtarget Target_550:=[[-235.126756245,105.676007751,-0.000467467],[0,0.707106781,-0.707106781,-0.000000001],[0,0,0,0],[9E+09,9E+09,9E+09,9E+09,9E+09,9E+09]];
    CONST robtarget Target_560:=[[-232.535206949,111.197134512,-0.000467472],[0,0.707106781,-0.707106781,-0.000000001],[0,0,0,0],[9E+09,9E+09,9E+09,9E+09,9E+09,9E+09]];
    CONST robtarget Target_570:=[[-227.746474555,114.690092258,-0.000467476],[0,-0.707106781,0.707106781,0],[0,0,0,0],[9E+09,9E+09,9E+09,9E+09,9E+09,9E+09]];
    CONST robtarget Target_580:=[[-215.239432301,115.168965497,-0.000467477],[0.000000001,-0.707106781,0.707106781,0.000000001],[0,0,0,0],[9E+09,9E+09,9E+09,9E+09,9E+09,9E+09]];
    CONST robtarget Target_590:=[[-211.211263287,110.999951413,-0.000467472],[0,-0.707106781,0.707106781,0],[0,0,0,0],[9E+09,9E+09,9E+09,9E+09,9E+09,9E+09]];
    CONST robtarget Target_600:=[[-212.67605202,103.506993667,-0.000467464],[0,-0.707106781,0.707106781,0],[0,0,0,0],[9E+09,9E+09,9E+09,9E+09,9E+09,9E+09]];
    CONST robtarget Target_610:=[[-220.873235118,105.028120427,-0.000467466],[-0.000000001,-0.707106781,0.707106781,0],[0,0,0,0],[9E+09,9E+09,9E+09,9E+09,9E+09,9E+09]];
    CONST robtarget Target_620:=[[-223.718305541,97.87319085,-0.000467458],[0,-0.707106781,0.707106781,0],[0,0,0,0],[9E+09,9E+09,9E+09,9E+09,9E+09,9E+09]];
    CONST robtarget Target_630:=[[-223.718305541,97.873190955,99.999532542],[0,-0.707106781,0.707106781,0],[0,0,0,0],[9E+09,9E+09,9E+09,9E+09,9E+09,9E+09]];
    CONST robtarget Target_640:=[[-113.323175616,203.709970235,99.99953243],[0,-0.707106781,0.707106781,0],[0,0,0,0],[9E+09,9E+09,9E+09,9E+09,9E+09,9E+09]];
    CONST robtarget Target_650:=[[-113.323175616,203.70997013,-0.000467569],[0,-0.707106781,0.707106781,0],[0,0,0,0],[9E+09,9E+09,9E+09,9E+09,9E+09,9E+09]];
    CONST robtarget Target_660:=[[-117.103663421,186.819726227,-0.000467552],[0,-0.707106781,0.707106781,0],[0,0,0,0],[9E+09,9E+09,9E+09,9E+09,9E+09,9E+09]];
    CONST robtarget Target_670:=[[-128.384151226,174.716067691,-0.000467539],[0,-0.707106781,0.707106781,0],[0,0,0,0],[9E+09,9E+09,9E+09,9E+09,9E+09,9E+09]];
    CONST robtarget Target_680:=[[-146.432931714,169.746555496,-0.000467533],[-0.000000001,-0.707106781,0.707106781,-0.000000001],[0,0,0,0],[9E+09,9E+09,9E+09,9E+09,9E+09,9E+09]];
    CONST robtarget Target_690:=[[-146.432931714,162.612409153,-0.000467526],[0,-0.707106781,0.707106781,0],[0,0,0,0],[9E+09,9E+09,9E+09,9E+09,9E+09,9E+09]];
    CONST robtarget Target_700:=[[-162.591468299,162.612409153,-0.000467526],[0,-0.707106781,0.707106781,0],[0,0,0,0],[9E+09,9E+09,9E+09,9E+09,9E+09,9E+09]];
    CONST robtarget Target_710:=[[-162.591468299,169.746555496,-0.000467533],[0,-0.707106781,0.707106781,0],[0,0,0,0],[9E+09,9E+09,9E+09,9E+09,9E+09,9E+09]];
    CONST robtarget Target_720:=[[-186.493907324,179.441677447,-0.000467543],[-0.000000001,-0.707106781,0.707106781,0],[0,0,0,0],[9E+09,9E+09,9E+09,9E+09,9E+09,9E+09]];
    CONST robtarget Target_730:=[[-195.640248787,203.70997013,-0.000467569],[0,-0.707106781,0.707106781,0],[0,0,0,0],[9E+09,9E+09,9E+09,9E+09,9E+09,9E+09]];
    CONST robtarget Target_740:=[[-186.920736592,227.429482325,-0.000467594],[0,-0.707106781,0.707106781,0],[0,0,0,0],[9E+09,9E+09,9E+09,9E+09,9E+09,9E+09]];
    CONST robtarget Target_750:=[[-162.591468299,238.222165252,-0.000467606],[0,-0.707106781,0.707106781,0],[0,0,0,0],[9E+09,9E+09,9E+09,9E+09,9E+09,9E+09]];
    CONST robtarget Target_760:=[[-162.591468299,247.856311593,-0.000467616],[0,-0.707106781,0.707106781,0],[0,0,0,0],[9E+09,9E+09,9E+09,9E+09,9E+09,9E+09]];
    CONST robtarget Target_770:=[[-146.432931714,247.856311593,-0.000467616],[0,-0.707106781,0.707106781,0],[0,0,0,0],[9E+09,9E+09,9E+09,9E+09,9E+09,9E+09]];
    CONST robtarget Target_780:=[[-146.432931714,238.222165252,-0.000467606],[0,-0.707106781,0.707106781,0],[0,0,0,0],[9E+09,9E+09,9E+09,9E+09,9E+09,9E+09]];
    CONST robtarget Target_790:=[[-122.042687812,227.39899452,-0.000467594],[0,-0.707106781,0.707106781,0],[0,0,0,0],[9E+09,9E+09,9E+09,9E+09,9E+09,9E+09]];
    CONST robtarget Target_800:=[[-113.323175616,203.70997013,-0.000467569],[0,-0.707106781,0.707106781,0],[0,0,0,0],[9E+09,9E+09,9E+09,9E+09,9E+09,9E+09]];
    CONST robtarget Target_810:=[[-113.323175616,203.709970235,99.99953243],[0,-0.707106781,0.707106781,0],[0,0,0,0],[9E+09,9E+09,9E+09,9E+09,9E+09,9E+09]];
    CONST robtarget Target_820:=[[-129.96951708,203.709970235,99.99953243],[0,-0.707106781,0.707106781,0],[0,0,0,0],[9E+09,9E+09,9E+09,9E+09,9E+09,9E+09]];
    CONST robtarget Target_830:=[[-129.96951708,203.70997013,-0.000467569],[0,-0.707106781,0.707106781,0],[0,0,0,0],[9E+09,9E+09,9E+09,9E+09,9E+09,9E+09]];
    CONST robtarget Target_840:=[[-134.268297568,217.612409154,-0.000467583],[-0.000000001,-0.707106781,0.707106781,0],[0,0,0,0],[9E+09,9E+09,9E+09,9E+09,9E+09,9E+09]];
    CONST robtarget Target_850:=[[-146.432931714,223.953872569,-0.000467591],[-0.000000001,-0.707106781,0.707106781,-0.000000001],[0,0,0,0],[9E+09,9E+09,9E+09,9E+09,9E+09,9E+09]];
    CONST robtarget Target_860:=[[-146.432931714,183.46606769,-0.000467548],[0,-0.707106781,0.707106781,0],[0,0,0,0],[9E+09,9E+09,9E+09,9E+09,9E+09,9E+09]];
    CONST robtarget Target_870:=[[-134.451224397,189.533140861,-0.000467555],[0,0.707106781,-0.707106781,-0.000000001],[0,0,0,0],[9E+09,9E+09,9E+09,9E+09,9E+09,9E+09]];
    CONST robtarget Target_880:=[[-129.96951708,203.70997013,-0.000467569],[0,-0.707106781,0.707106781,0],[0,0,0,0],[9E+09,9E+09,9E+09,9E+09,9E+09,9E+09]];
    CONST robtarget Target_890:=[[-129.96951708,203.709970235,99.99953243],[0,-0.707106781,0.707106781,0],[0,0,0,0],[9E+09,9E+09,9E+09,9E+09,9E+09,9E+09]];
    CONST robtarget Target_900:=[[-178.993907324,203.709970235,99.99953243],[0,-0.707106781,0.707106781,0],[0,0,0,0],[9E+09,9E+09,9E+09,9E+09,9E+09,9E+09]];
    CONST robtarget Target_910:=[[-178.993907324,203.70997013,-0.000467569],[0,-0.707106781,0.707106781,0],[0,0,0,0],[9E+09,9E+09,9E+09,9E+09,9E+09,9E+09]];
    CONST robtarget Target_920:=[[-174.725614641,189.7770433,-0.000467554],[0,-0.707106781,0.707106781,0],[0,0,0,0],[9E+09,9E+09,9E+09,9E+09,9E+09,9E+09]];
    CONST robtarget Target_930:=[[-162.591468299,183.46606769,-0.000467548],[0,-0.707106781,0.707106781,0],[0,0,0,0],[9E+09,9E+09,9E+09,9E+09,9E+09,9E+09]];
    CONST robtarget Target_940:=[[-162.591468299,223.953872569,-0.000467591],[0,-0.707106781,0.707106781,0],[0,0,0,0],[9E+09,9E+09,9E+09,9E+09,9E+09,9E+09]];
    CONST robtarget Target_950:=[[-174.512200007,217.917287202,-0.000467584],[0,0.707106781,-0.707106781,0.000000001],[0,0,0,0],[9E+09,9E+09,9E+09,9E+09,9E+09,9E+09]];
    CONST robtarget Target_960:=[[-178.993907324,203.70997013,-0.000467569],[0,-0.707106781,0.707106781,0],[0,0,0,0],[9E+09,9E+09,9E+09,9E+09,9E+09,9E+09]];
    CONST robtarget Target_970:=[[-178.993907324,203.709970235,99.99953243],[0,-0.707106781,0.707106781,0],[0,0,0,0],[9E+09,9E+09,9E+09,9E+09,9E+09,9E+09]];
    CONST jointtarget Acerc:=[[4,29,-6,0,43,0],[9E+09,9E+09,9E+09,9E+09,9E+09,9E+09]];
    CONST jointtarget Home:=[[0,0,0,0,0,0],[9E+09,9E+09,9E+09,9E+09,9E+09,9E+09]];
    CONST jointtarget Mant:=[[90,0,0,0,0,0],[9E+09,9E+09,9E+09,9E+09,9E+09,9E+09]];
!***********************************************************
    !
    ! Módulo:  Module1
    !
    ! Descripción:
    !   <Introduzca la descripción aquí>
    !
    ! Autor: diego
    !
    ! Versión: 1.0
    !
    !***********************************************************
    
    
    !***********************************************************
    !
    ! Procedimiento Main
    !
    !   Este es el punto de entrada de su programa
    !
    !***********************************************************
    PROC main()
        
        Homep;
         WaitDI Ent_1,1;
        Acerca;
        D1;
        Homep;
        WaitDI Ent_2,1;
        Mantn;
        WaitDI Ent_1,1;
        Homep;
    ENDPROC
    PROC D1()
        SetDO Sal_1,1;
        MoveL Target_10,v200,z10,HL1v3\WObj:=Tabla1;
        MoveL Target_20,v200,z10,HL1v3\WObj:=Tabla1;
        MoveL Target_30,v200,z10,HL1v3\WObj:=Tabla1;
        MoveL Target_40,v200,z10,HL1v3\WObj:=Tabla1;
        MoveL Target_50,v200,z10,HL1v3\WObj:=Tabla1;
        MoveL Target_60,v200,z10,HL1v3\WObj:=Tabla1;
        MoveL Target_70,v200,z10,HL1v3\WObj:=Tabla1;
        MoveL Target_80,v200,z10,HL1v3\WObj:=Tabla1;
        MoveL Target_90,v200,z10,HL1v3\WObj:=Tabla1;
        MoveL Target_100,v200,z10,HL1v3\WObj:=Tabla1;
        MoveL Target_110,v200,z10,HL1v3\WObj:=Tabla1;
        MoveL Target_120,v200,z10,HL1v3\WObj:=Tabla1;
        MoveL Target_130,v200,z10,HL1v3\WObj:=Tabla1;
        MoveL Target_140,v200,z10,HL1v3\WObj:=Tabla1;
    ENDPROC
    PROC D2()
        MoveL Target_150,v200,z10,HL1v3\WObj:=Tabla1;
        MoveL Target_160,v200,z10,HL1v3\WObj:=Tabla1;
        MoveL Target_170,v200,z10,HL1v3\WObj:=Tabla1;
        MoveL Target_180,v200,z10,HL1v3\WObj:=Tabla1;
        MoveL Target_190,v200,z10,HL1v3\WObj:=Tabla1;
        MoveL Target_200,v200,z10,HL1v3\WObj:=Tabla1;
        MoveL Target_210,v200,z10,HL1v3\WObj:=Tabla1;
        MoveL Target_220,v200,z10,HL1v3\WObj:=Tabla1;
        MoveL Target_230,v200,z10,HL1v3\WObj:=Tabla1;
        MoveL Target_240,v200,z10,HL1v3\WObj:=Tabla1;
        MoveL Target_250,v200,z10,HL1v3\WObj:=Tabla1;
    ENDPROC
    PROC S()
        MoveL Target_260,v200,z10,HL1v3\WObj:=Tabla1;
        MoveL Target_270,v200,z10,HL1v3\WObj:=Tabla1;
        MoveL Target_280,v200,z10,HL1v3\WObj:=Tabla1;
        MoveL Target_290,v200,z10,HL1v3\WObj:=Tabla1;
        MoveL Target_300,v200,z10,HL1v3\WObj:=Tabla1;
        MoveL Target_310,v200,z10,HL1v3\WObj:=Tabla1;
        MoveL Target_320,v200,z10,HL1v3\WObj:=Tabla1;
        MoveL Target_330,v200,z10,HL1v3\WObj:=Tabla1;
        MoveL Target_340,v200,z10,HL1v3\WObj:=Tabla1;
        MoveL Target_350,v200,z10,HL1v3\WObj:=Tabla1;
        MoveL Target_360,v200,z10,HL1v3\WObj:=Tabla1;
        MoveL Target_370,v200,z10,HL1v3\WObj:=Tabla1;
        MoveL Target_380,v200,z10,HL1v3\WObj:=Tabla1;
        MoveL Target_390,v200,z10,HL1v3\WObj:=Tabla1;
        MoveL Target_400,v200,z10,HL1v3\WObj:=Tabla1;
        MoveL Target_410,v200,z10,HL1v3\WObj:=Tabla1;
        MoveL Target_420,v200,z10,HL1v3\WObj:=Tabla1;
        MoveL Target_430,v200,z10,HL1v3\WObj:=Tabla1;
        MoveL Target_440,v200,z10,HL1v3\WObj:=Tabla1;
        MoveL Target_450,v200,z10,HL1v3\WObj:=Tabla1;
        MoveL Target_460,v200,z10,HL1v3\WObj:=Tabla1;
        MoveL Target_470,v200,z10,HL1v3\WObj:=Tabla1;
        MoveL Target_480,v200,z10,HL1v3\WObj:=Tabla1;
        MoveL Target_490,v200,z10,HL1v3\WObj:=Tabla1;
        MoveL Target_500,v200,z10,HL1v3\WObj:=Tabla1;
    ENDPROC
    PROC J()
        MoveL Target_510,v200,z10,HL1v3\WObj:=Tabla1;
        MoveL Target_520,v200,z10,HL1v3\WObj:=Tabla1;
        MoveL Target_530,v200,z10,HL1v3\WObj:=Tabla1;
        MoveL Target_540,v200,z10,HL1v3\WObj:=Tabla1;
        MoveL Target_550,v200,z10,HL1v3\WObj:=Tabla1;
        MoveL Target_560,v200,z10,HL1v3\WObj:=Tabla1;
        MoveL Target_570,v200,z10,HL1v3\WObj:=Tabla1;
        MoveL Target_580,v200,z10,HL1v3\WObj:=Tabla1;
        MoveL Target_590,v200,z10,HL1v3\WObj:=Tabla1;
        MoveL Target_600,v200,z10,HL1v3\WObj:=Tabla1;
        MoveL Target_610,v200,z10,HL1v3\WObj:=Tabla1;
        MoveL Target_620,v200,z10,HL1v3\WObj:=Tabla1;
        MoveL Target_630,v200,z10,HL1v3\WObj:=Tabla1;
    ENDPROC
    PROC Phi()
        MoveL Target_640,v200,z10,HL1v3\WObj:=Tabla1;
        MoveL Target_650,v200,z10,HL1v3\WObj:=Tabla1;
        MoveL Target_660,v200,z10,HL1v3\WObj:=Tabla1;
        MoveL Target_670,v200,z10,HL1v3\WObj:=Tabla1;
        MoveL Target_680,v200,z10,HL1v3\WObj:=Tabla1;
        MoveL Target_690,v200,z10,HL1v3\WObj:=Tabla1;
        MoveL Target_700,v200,z10,HL1v3\WObj:=Tabla1;
        MoveL Target_710,v200,z10,HL1v3\WObj:=Tabla1;
        MoveL Target_720,v200,z10,HL1v3\WObj:=Tabla1;
        MoveL Target_730,v200,z10,HL1v3\WObj:=Tabla1;
        MoveL Target_740,v200,z10,HL1v3\WObj:=Tabla1;
        MoveL Target_750,v200,z10,HL1v3\WObj:=Tabla1;
        MoveL Target_760,v200,z10,HL1v3\WObj:=Tabla1;
        MoveL Target_770,v200,z10,HL1v3\WObj:=Tabla1;
        MoveL Target_780,v200,z10,HL1v3\WObj:=Tabla1;
        MoveL Target_790,v200,z10,HL1v3\WObj:=Tabla1;
        MoveL Target_800,v200,z10,HL1v3\WObj:=Tabla1;
        MoveL Target_810,v200,z10,HL1v3\WObj:=Tabla1;
    ENDPROC
    PROC Phi1()
        MoveL Target_820,v200,z10,HL1v3\WObj:=Tabla1;
        MoveL Target_830,v200,z10,HL1v3\WObj:=Tabla1;
        MoveL Target_840,v200,z10,HL1v3\WObj:=Tabla1;
        MoveL Target_850,v200,z10,HL1v3\WObj:=Tabla1;
        MoveL Target_860,v200,z10,HL1v3\WObj:=Tabla1;
        MoveL Target_870,v200,z10,HL1v3\WObj:=Tabla1;
        MoveL Target_880,v200,z10,HL1v3\WObj:=Tabla1;
        MoveL Target_890,v200,z10,HL1v3\WObj:=Tabla1;
    ENDPROC
    PROC Phi2()
        MoveL Target_900,v200,z10,HL1v3\WObj:=Tabla1;
        MoveL Target_910,v200,z10,HL1v3\WObj:=Tabla1;
        MoveL Target_920,v200,z10,HL1v3\WObj:=Tabla1;
        MoveL Target_930,v200,z10,HL1v3\WObj:=Tabla1;
        MoveL Target_940,v200,z10,HL1v3\WObj:=Tabla1;
        MoveL Target_950,v200,z10,HL1v3\WObj:=Tabla1;
        MoveL Target_960,v200,z10,HL1v3\WObj:=Tabla1;
        MoveL Target_970,v200,z10,HL1v3\WObj:=Tabla1;
    ENDPROC
    PROC Acerca()
        MoveAbsJ Acerc,v1000,z100,HL1v3\WObj:=Tabla1;
    ENDPROC
    PROC Homep()
        MoveAbsJ Home,v1000,z100,HL1v3\WObj:=Tabla1;
    ENDPROC
    PROC Mantn()
        SetDO Sal_1,0;
        MoveAbsJ Mant,v1000,z100,HL1v3\WObj:=Tabla1;
    ENDPROC
ENDMODULE